gama.ui.shared/icons_svg/dark/overlays/small.collapse.svg

<?xml version="1.0" encoding="UTF-8" standalone="no"?>
<!DOCTYPE svg PUBLIC "-//W3C//DTD SVG 1.1//EN" "http://www.w3.org/Graphics/SVG/1.1/DTD/svg11.dtd">
<svg xmlns="http://www.w3.org/2000/svg" xmlns:xl="http://www.w3.org/1999/xlink" version="1.1" xmlns:dc="http://purl.org/dc/elements/1.1/" viewBox="-802.2741 -3115.658 16 16" width="16" height="16">
  <defs/>
  <g id="SOURCES" stroke-opacity="1" fill="none" stroke="none" fill-opacity="1" stroke-dasharray="none">
    <title>SOURCES</title>
    <g id="SOURCES_Dark">
      <title>Dark</title>
      <g id="Graphic_11195"/>
      <g id="Graphic_11194">
        <path d="M -791.1041 -3107.5367 C -790.8941 -3107.7167 -790.5741 -3107.6967 -790.3941 -3107.4867 C -790.2141 -3107.2767 -790.2341 -3106.9567 -790.4441 -3106.7767 L -793.9441 -3103.7767 C -794.1341 -3103.6167 -794.4041 -3103.6167 -794.5941 -3103.7767 L -798.0941 -3106.7767 C -798.3041 -3106.9567 -798.3241 -3107.2767 -798.1441 -3107.4867 C -797.9641 -3107.6967 -797.6441 -3107.7167 -797.4341 -3107.5367 L -794.2641 -3104.8167 Z M -791.1041 -3111.5367 C -790.8941 -3111.7167 -790.5741 -3111.6967 -790.3941 -3111.4867 C -790.2141 -3111.2767 -790.2341 -3110.9567 -790.4441 -3110.7767 L -793.9441 -3107.7767 C -794.1341 -3107.6167 -794.4041 -3107.6167 -794.5941 -3107.7767 L -798.1041 -3110.7767 C -798.3141 -3110.9567 -798.3341 -3111.2767 -798.1541 -3111.4867 C -797.9741 -3111.6967 -797.6541 -3111.7167 -797.4441 -3111.5367 L -794.2741 -3108.8167 Z" fill="white"/>
      </g>
      <g id="Graphic_11192">
        <path d="M -791.1041 -3106.2163 C -790.8941 -3106.3963 -790.5741 -3106.3763 -790.3941 -3106.1663 C -790.2141 -3105.9563 -790.2341 -3105.6363 -790.4441 -3105.4563 L -793.9441 -3102.4563 C -794.1341 -3102.2963 -794.4041 -3102.2963 -794.5941 -3102.4563 L -798.0941 -3105.4563 C -798.3041 -3105.6363 -798.3241 -3105.9563 -798.1441 -3106.1663 C -797.9641 -3106.3763 -797.6441 -3106.3963 -797.4341 -3106.2163 L -794.2641 -3103.4963 Z M -791.1041 -3110.2163 C -790.8941 -3110.3963 -790.5741 -3110.3763 -790.3941 -3110.1663 C -790.2141 -3109.9563 -790.2341 -3109.6363 -790.4441 -3109.4563 L -793.9441 -3106.4563 C -794.1341 -3106.2963 -794.4041 -3106.2963 -794.5941 -3106.4563 L -798.1041 -3109.4563 C -798.3141 -3109.6363 -798.3341 -3109.9563 -798.1541 -3110.1663 C -797.9741 -3110.3763 -797.6541 -3110.3963 -797.4441 -3110.2163 L -794.2741 -3107.4963 Z" fill="#999"/>
      </g>
    </g>
  </g>
</svg>

<svg height="16" viewBox="-802.274 -3115.658 16 16" width="16" xmlns="http://www.w3.org/2000/svg"><g fill="none"><path d="m-791.1041-3107.5367c.21-.18.53-.16.71.05s.16.53-.05.71l-3.5 3c-.19.16-.46.16-.65 0l-3.5-3c-.21-.18-.23-.5-.05-.71s.5-.23.71-.05l3.17 2.72zm0-4c.21-.18.53-.16.71.05s.16.53-.05.71l-3.5 3c-.19.16-.46.16-.65 0l-3.51-3c-.21-.18-.23-.5-.05-.71s.5-.23.71-.05l3.17 2.72z" fill="#fff"/><path d="m-791.1041-3106.2163c.21-.18.53-.16.71.05s.16.53-.05.71l-3.5 3c-.19.16-.46.16-.65 0l-3.5-3c-.21-.18-.23-.5-.05-.71s.5-.23.71-.05l3.17 2.72zm0-4c.21-.18.53-.16.71.05s.16.53-.05.71l-3.5 3c-.19.16-.46.16-.65 0l-3.51-3c-.21-.18-.23-.5-.05-.71s.5-.23.71-.05l3.17 2.72z" fill="#999"/></g></svg>
